X: 1
T: Mister Softee
M: 12/8
L: 1/8
R: slide
K: Gmaj
ded BAG A2G E2 G | F2 G A2 d B3 G3 | ded BAG A2G E2 G | F2 G A2 d B3 G2 G ||
A3 D2 D B3 G2 G | A3 D2 D B2 A G2 G | A3 D2 D B2 c d3 | A2 B ^c2 A d3-d3 |
ded BAG A2G E2 G | F2 G A2 d B3 G3 | ded BAG A2G E2 G | F2 G A2 d B3 G2 G ||
A2 B c2 A B2 c d3 | e3 F3 A G2-G3 ||
